lesson_7/img/5.svg

<svg width="32" height="32" viewBox="0 0 32 32" fill="none" xmlns="http://www.w3.org/2000/svg">
<path d="M31.4506 0H0V32H31.4506V0Z" fill="white"/>
<path d="M19.0883 16.28L19.5068 13.616H16.8901V11.8873C16.8901 11.1585 17.2557 10.4481 18.4276 10.4481H19.6171V8.17997C19.6171 8.17997 18.5376 8 17.5055 8C15.3506 8 13.9421 9.27593 13.9421 11.5857V13.616H11.5468V16.28H13.9421V22.72H16.8901V16.28H19.0883Z" fill="black"/>
</svg>

<svg width="32" height="32" fill="none" xmlns="http://www.w3.org/2000/svg"><path d="M31.45 0H0v32h31.45V0Z" fill="#fff"/><path d="m19.088 16.28.419-2.664H16.89v-1.729c0-.729.366-1.439 1.538-1.439h1.19V8.18S18.537 8 17.505 8c-2.155 0-3.564 1.276-3.564 3.586v2.03h-2.395v2.664h2.395v6.44h2.948v-6.44h2.198Z" fill="#000"/></svg>
